svg/fluentui-system-icons/ic_fluent_people_lock_20_filled.svg

<svg width="20" height="20" viewBox="0 0 20 20" fill="none" xmlns="http://www.w3.org/2000/svg">
<path d="M10 5.75C10 7.54493 8.54493 9 6.75 9C4.95507 9 3.5 7.54493 3.5 5.75C3.5 3.95507 4.95507 2.5 6.75 2.5C8.54493 2.5 10 3.95507 10 5.75ZM11 14.4488C10.262 15.2788 8.97931 16 6.75 16C1.5 16 1.5 12 1.5 12C1.5 10.8954 2.39543 10 3.5 10H10C11.1046 10 12 10.8954 12 12C12 12 12 12.1049 11.9777 12.2807C11.3922 12.6295 11 13.269 11 14V14.4488ZM14.5 9C15.8807 9 17 7.88071 17 6.5C17 5.11929 15.8807 4 14.5 4C13.1193 4 12 5.11929 12 6.5C12 7.88071 13.1193 9 14.5 9ZM13.5 12V13H13C12.4477 13 12 13.4477 12 14V18C12 18.5523 12.4477 19 13 19H18C18.5523 19 19 18.5523 19 18V14C19 13.4477 18.5523 13 18 13H17.5V12C17.5 10.8954 16.6046 10 15.5 10C14.3954 10 13.5 10.8954 13.5 12ZM14.5 13V12C14.5 11.4477 14.9477 11 15.5 11C16.0523 11 16.5 11.4477 16.5 12V13H14.5ZM15.5 15.25C15.9142 15.25 16.25 15.5858 16.25 16C16.25 16.4142 15.9142 16.75 15.5 16.75C15.0858 16.75 14.75 16.4142 14.75 16C14.75 15.5858 15.0858 15.25 15.5 15.25Z" fill="#212121"/>
</svg>

<svg xmlns="http://www.w3.org/2000/svg" width="20" height="20"><path d="M10 5.75a3.25 3.25 0 1 1-6.5 0 3.25 3.25 0 0 1 6.5 0Zm1 8.699C10.262 15.279 8.98 16 6.75 16 1.5 16 1.5 12 1.5 12a2 2 0 0 1 2-2H10a2 2 0 0 1 2 2s0 .105-.022.28A1.999 1.999 0 0 0 11 14v.449ZM14.5 9a2.5 2.5 0 1 0 0-5 2.5 2.5 0 0 0 0 5Zm-1 3v1H13a1 1 0 0 0-1 1v4a1 1 0 0 0 1 1h5a1 1 0 0 0 1-1v-4a1 1 0 0 0-1-1h-.5v-1a2 2 0 1 0-4 0Zm1 1v-1a1 1 0 1 1 2 0v1h-2Zm1 2.25a.75.75 0 1 1 0 1.5.75.75 0 0 1 0-1.5Z"/></svg>
